X:1
T:Title
%%score 1 { 2 | 3 }
L:1/8
Q:1/4=95
M:4/4
K:G
V:1 treble nm="Grand Piano, Soprano"
V:2 bass nm="Choir Pad, Come unto Me (Share)"
V:3 bass 
V:1
 [B,D]2 [DB]>[^C_B] [D=B]2 [B,G]2 | [EG]>[EA] [EG][CE] [B,D]2 [B,G]2 | [DF]2 [DA]>[D^G] [DA]2 z2 | %3
w: By~Edmund~Simon~Lorenz * * * *|||
 [DG]2 [GB]>[G_B] [G=B]2 z2 | [B,D]2 [DB]>[^C_B] [D=B]2 [B,G]2 | [EG]>[EA] [EG][CE] [B,D]2 [DG]2 | %6
w: |||
 [EA]4 [DG]2 [DF]2 | [DG]6 z2 | [Bd]2 [GB]>[Ac] [Bd]>[ce] [Bd]2 | [Ac]2 [FA]>[GB] [Ac]>[Bd] [Ac]2 | %10
w: ||||
 [Bd]2 [GB]>[DA] [EG]2 [DF]>[EG] | [EA]>[EG] [DF]>[^CE] D2 z2 | [DG]2 [DB]>[^C_B] [D=B]2 z2 | %13
w: |||
 [FA]2 [Ac]>[^GB] [Ac]2 z2 | [Bd]2 [GB]>[DA] [EG]>[DF] [EG]>[GA] | [GB]2 [DA]2 [DG]4- | [DG]4 z4 |] %17
w: ||||
V:2
 G,2 G,>G, G,2 G,2 | G,>G, G,G, G,2[K:treble] G,2 | A,2 C>B, C2 z2 | B,2 D>^C D2 z2 | %4
 G,2 G,>G, G,2 G,2 | G,>G, G,G, G,2 B,2 | C4 B,2 A,2 | B,6 z2 | G,,8 | D,,8 | %10
 D2 D>B,[K:treble] C2 C>C | ^C>C[K:bass] A,>G, F,2 z2 | B,2 z2 z4 | D2 z2 z4 | D2 D>B, C>C C>E | %15
 D2 C2 B,4- | B,4 z4 |] %17
V:3
 z8 | C,>C, C,C, G,,2 G,,2 | D,2 D,>D, D,2 z2 | G,2 G,>G, G,2 z2 | z8 | C,>C, C,C, G,,2 G,,2 | %6
 C,4 D,2 D,2 | G,,6 z2 | z8 | z8 | G,2 G,>G, C,2 C,>C, | A,,>A,, A,,>A,, D,2 z2 | G,2 z2 z4 | %13
 D,2 z2 z4 | G,2 G,>G, C,>C, C,>C, | D,2 D,2 G,,4- | G,,4 z4 |] %17

